X:1
T:Arse la fiamm' e consumò
T:Orlando Lasso
T:Arse la fiamm' e consumò
C:Orlando Lasso
Z:Gabriele Fiamma
%%score [ 1 2 3 4 ]
L:1/8
Q:1/4=106
M:2/2
K:F
V:1 alto2 nm="Cantus" snm="C"
V:2 alto nm="Altus" snm="A"
V:3 tenor nm="Tenor" snm="T"
V:4 bass nm="Basso" snm="B"
V:1
 x8 | z2 z2 z2 x2 |[M:4/2][K:treble] z4 D4 E2 E2 F4- | F2 F2 F2 F2 F4 F4 | G8 ^F4 z2 F2 | %5
w: ||Ar- se la fiam-|* m'e con- su- mò l'ar-|do- re, Fug-|
 G2 ^F2 G2 A2 B3 B B2 A2- | A2 G4 ^F2 G4 z2 E2- | E2 E2 E4 F4 D4 | F8 F4 z2 F2 | C4 D4 E2 E2 G4 | %10
w: gi lo spir- to e si dis- fe- ce il|* co- * re, Ma|* per for- za d'a-|mo- re, A|pie de l'a- pe- ni-|
 A2 F4 G2 E8 | ^F8 z2 G2 G2 A2 | D4 z2 G4 F4 E2 | D2 D2 D4 ^C8 | z8 z4 D4 | D2 D2 _E4 D2 G4 ^F2 | %16
w: no a le chia- r'on-|de, De- lia gen-|til tra l'a- mo-|ro- se fron- de,|Te-|men- do il fo- co ch'a be-|
 G8 A4 B4- | B2 AG A4 B8 | z2 B2 A2 F2 A4 G4 | z2 G4 F2 E2 A2 G4 | ^F4 z2 G4 =F2 E2 E2 | %21
w: gl'oc- chi a- sce-|* * * * se,|L'a- ria so- a- ve,|di so- spir ac- ce-|se, di so- spir ac-|
 A4 G2 G4 F2 E2 A2- | A2 G2 F2 A2 B2 G2 z2 G2- | G2 F2 E4 z2 A4 G2 | F4 D4 D8 | D16 |] %26
w: ce- se, di so- spir, di|* so- spir ac- ce- se, di|* so- spir, di so-|spir ac- ce-|se.|
V:2
 x8 | z2 z2 z2 x2 |[M:4/2][K:treble-8] z4 =B4 c2 G2 A2 c2- | c2 d4 d2 d4 c2 d2- | %4
w: ||Ar- se la fiam- m'e|* con- su- mò l'ar- do-|
 d2 cB c4 d4 z2 d2 | c2 d2 d2 f2 f2 g2 f2 _e2 | d8 =B4 z2 c2- | c2 c2 c4 A4 B4 | c8 d2 d2 A4- | %9
w: * * * * re, Fug-|gi lo spir- to e si dis- fe- ce il|co- re, Ma|* per for- za d'a-|mo- re, A pie|
 A2 A2 =B2 B2 c4 e4 | f2 c2 d6 ^c=B c4 | d4 z2 d2 d2 _e2 d4 | z2 G2 B2 c2 d4 G3 A | %13
w: * de l'a- pe- ni- no a|le chia- r'on- * * *|de, De- lia gen- til|tra l'a- mo- ro- se *|
 B2 A4 G2 A4 z2 A2- | A2 A2 A2 B4 c2 B2 A2 | G4 G4 z2 d2 d2 d2 | _e4 d2 d2 f2 f4 f2 | f8 g4 z2 g2 | %18
w: * fron- * de, Te-|* men- do il fo- co ch'a be-|gl'oc- chi, Te- men- do il|fo- co ch'a be- gl'oc- chi a-|sce- se, L'a-|
 f2 d2 f4 f2 f4 _e2 | d8 z2 f2 _e2 d2- | d2 d2 dcBA G2 d2 z2 g2- | g2 f2 e4 d4 c4- | %22
w: ria so- a- ve, di so-|spir, di so- spir|* ac- ce- * * * * se, di|* so- spir ac- ce-|
 c4 A2 f4 _e2 d4 | z2 d4 c2 B2 f4 _e2 | d4 B4 A8 | =B16 |] %26
w: * se, di so- spir,|di so- spir, di so-|spir ac- ce-|se.|
V:3
 x8 | z2 z2 z2 x2 |[M:4/2][K:treble-8] d6 G2 G2 c3 BAG | F2 A2 B2 B2 B4 A2 B2- | %4
w: ||Ar- se la fiam- * * *|* m'e con- su- mò l'ar- do-|
 BAGF G4 A2 A2 B2 A2 | G2 A2 B2 c2 d6 c2 | B3 A/G/ A4 d4 G4 | G2 G4 A4 d4 B2- | %8
w: * * * * * re, Fug- gi lo|spir- to e si dis- fe- ce il|co- * * * re, Ma|per for- za d'a- mo-|
 B2 AG A4 B2 B2 F4- | F2 E2 G2 G2 G6 c2- | c2 A2 B4 A8 | A8 B4 B2 A2 | B4 G4 B2 A2 c4 | F4 D4 E8 | %14
w: * * * * re, A pie|* de l'a- pe- ni- no a|* le chia- r'on-|de, De- lia gen-|til tra l'a- mo- ro-|se fron- de,|
 F4 F2 F2 G6 F2 | B2 B2 B2 c2 B4 A4 | z2 c4 =B2 c4 d4 | c8 _e4 z2 e2 | d2 B2 d4 c4 z2 c2- | %19
w: Te- men- do il fo- co|ch'a be- gl'oc- chi a- sce- se,|ch'a be- gl'oc- chi a-|sce- se, L'a-|ria so- a- ve, di|
 c2 B2 A4 c6 B2 | A4 G3 A B4 c4 | c4 z2 c2 B2 A2 A4 | F2 G2 d6 c2 B2 B2 | A4 A4 d4 c2 B2- | %24
w: * so- spir, di so-|spir ac- * * ce-|se, di so- spir ac-|ce- se, di so- spir ac-|ce- se, di so- spir|
 B2 A4 G4 ^FE F4 | G16 |] %26
w: * ac- ce- * * *|se.|
V:4
 x8 | z2 z2 z2 x2 |[M:4/2] z4 G,4 C,2 C,2 F,3 G, | A,2 D,2 B,,2 B,,2 B,,C,D,E, F,2 D,2 | %4
w: ||Ar- se la fiam- *|* m'e con- su- mò * * * * l'ar-|
 _E,8 D,4 z2 D,2 | _E,2 D,2 G,2 F,2 B,,2 G,,2 B,,2 C,2 | D,8 G,,4 z2 C,2- | C,2 C,2 C,4 D,4 G,4 | %8
w: do- re, Fug-|gi lo spir- to e si dis- fe- ce il|co- re, Ma|* per for- za d'a-|
 F,8 B,,4 z2 D,2 | A,,4 G,,4 C,2 C,2 C,4 | F,4 B,,2 G,,2 A,,8 | D,8 G,4 G,2 ^F,2 | %12
w: mo- re, A|pie de l'a- pe- ni-|no a le chia- r'on-|de, De- lia gen-|
 G,4 _E,4 D,4 C,4 | D,2 D,2 B,,4 A,,8 | D,4 D,2 D,2 _E,4 D,4 | z2 G,2 _E,2 C,2 G,4 D,4 | %16
w: til tra l'a- mo-|ro- se fron- de,|Te- men- do il fo- co,|Te- men- do il fo- co|
 C,4 G,4 F,4 B,,4 | F,8 _E,8 | z2 G,2 F,2 D,2 F,4 C,4 | G,4 D,4 A,2 F,2 G,4 | D,4 z2 _E,4 D,2 C,4 | %21
w: ch'a be- gl'oc- chi a-|sce- se,|L'a- ria so- a- ve,|di so- spir ac- ce-|se, di so- spir|
 A,,4 C,4 D,4 z2 F,2- | F,2 _E,2 D,3 C, B,,2 C,2 G,4 | D,4 z2 A,2 G,2 F,4 G,2 | D,16 | G,,16 |] %26
w: ac- ce- se, di|* so- spir * * ac- ce-|se, di so- spir ac-|ce-|se.|

